!!!OTL: Yitiao xizai lililiu
!!!ARE: Asia, China, Fujian Zhaoan
!! II, 574
!!!SCT: C1998
!!!YEM: Copyright 1995, estate of Helmut Schaffrath.
**kern
*ICvox
*Ivox
!! Mixed meters:  2/4; 3/4
*M2/4
*k[b-e-]
*B-:
{4cc
4ff
=1
2dd}
=2
{8cc
8dd
8cc
8b-
=3
8g
8r
4dd
=4
[2cc
=5
4.cc]
8g}
=6
*M3/4
{8cc
8cc
8ff
4.dd}
=7
*M2/4
{8ff
8ff
8cc
[8dd
=8
4dd]
4r}
=9
{16ff
8.ff
8ff
8dd
=10
*M3/4
8ff
8dd
8ff
4dd
8cc
=11
12b-
12cc
12b-
2g}
=12
*M2/4
{8cc
8ff
8cc
8dd
=13
16dd
16dd
8cc
[4dd
=14
4dd]
4r}
=15
*M3/4
{8dd
8cc
8dd
16cc
16dd
8dd
8dd
=16
8ff
16ff
[16dd
4.dd]
8cc
=17
8b-
16cc
16b-
2g}
==
!!!AGN: Shange, Fangniu ge
!!!AMT: irregular
!!!AIN: vox
!!!EED: Helmut Schaffrath
!!!EEV: 1.0
*-
!!!ONB: Tied note syntax fixed by Craig Sapp, 2004/05/03/
